16x16/apps/org.kde.okular.svg

<svg height="16" width="16" xmlns="http://www.w3.org/2000/svg"><path d="m15 15.2v-14.4c0-.443-.362-.8-.813-.8h-11.374a.805.805 0 0 0 -.813.8v14.4c0 .443.362.8.813.8h11.374c.45 0 .813-.357.813-.8z" fill="#f4f4f7"/><path d="m3.834 1a.833.833 0 0 0 -.834.834v3.332c0 .462.372.834.834.834h3.332a.833.833 0 0 0 .834-.834v-3.332a.833.833 0 0 0 -.834-.834zm5.166 0v1h5v-1zm0 2v1h5v-1zm0 2v1h5v-1zm-6 2v1h11v-1zm0 2v1h11v-1zm0 2v1h11v-1zm0 2v1h11v-1z" opacity=".1"/><path d="m10.006.003c-1.078.008-1.245-.01-2.436 0-.994.924-1.836 2.152-2.525 3.548-1.065 2.155-1.318 3.975-.75 5.468.566 1.492 1.867 2.428 3.895 2.81 2.133.402 4.11.096 5.932-.927.28-.156.613-.33.875-.514-.006-.747.009-1.28 0-2.387a9.975 9.975 0 0 1 -2.226 2.17c-1.368.976-2.78 1.325-4.246 1.049-1.393-.263-2.211-1.04-2.452-2.332-.23-1.297.146-2.942 1.133-4.94.809-1.64 1.741-2.989 2.8-3.945z" fill="#218ed4"/></svg>

<svg xmlns="http://www.w3.org/2000/svg" width="16" height="16" version="1"><path style="fill:#f4f4f7" d="M15 15.2V.8c0-.443-.362-.8-.813-.8H2.813A.805.805 0 0 0 2 .8v14.4c0 .443.362.8.813.8h11.374c.45 0 .813-.357.813-.8z"/><path style="opacity:.1" d="M3.834 1A.833.833 0 0 0 3 1.834v3.332c0 .462.372.834.834.834h3.332A.833.833 0 0 0 8 5.166V1.834A.833.833 0 0 0 7.166 1zM9 1v1h5V1zm0 2v1h5V3zm0 2v1h5V5zM3 7v1h11V7zm0 2v1h11V9zm0 2v1h11v-1zm0 2v1h11v-1z"/><path style="fill:#218ed4" d="M10.006.003c-1.078.008-1.245-.01-2.436 0-.994.924-1.836 2.152-2.525 3.548-1.065 2.155-1.318 3.975-.75 5.468.566 1.492 1.867 2.428 3.895 2.81 2.133.402 4.11.096 5.932-.927.28-.156.613-.33.875-.514-.006-.747.009-1.28 0-2.387a9.975 9.975 0 0 1-2.226 2.17c-1.368.976-2.78 1.325-4.246 1.049-1.393-.263-2.211-1.04-2.452-2.332-.23-1.297.146-2.942 1.133-4.94.809-1.64 1.741-2.989 2.8-3.945z"/></svg>
